!!!COM: Gabriel Faure/
!!!CNT: Francais
!!!TXO: Francais
!!!OPS: Op. 27
!!!ONM: No. 1
!!!OTL: Chanson d'amour.
!!!LYR: Armand Silvestre
!!!ENC: Jacob Pegg
!!!YOR: Album of Twenty Songs (Vingt Me/lodies,) Volume II
!!!YOR: Edward B. Marks Music Corporation, RCA Building, Radio
!!!YOR: City, New York 20, N.Y.
!!!ODT: 1882/
!!NB: Vocal melody and text only encoded.
!!NB: First instance of melodic material only encoded.
**kern	**silbe
*clef G2	*
*k[f#]	*
*M4/4	*
*MM[116]	*
!!created: 2/10/04 0:51
!!proofed and posted: 2/11/04 13:59
!!edit time: 31 min.
=1	=1
1r	.
=2	=2
2r	.
2r	.
=3	=3
{4dd	{J'ai-
8b	-me
8a	tes
2b	yeux,
=4	=4
4ee	j'ai-
8b	-me
8a	ton
2b}	front,}
=5	=5
{4ff#	{O
8b	ma
8a	re-
8a	-bel-
8g#	-e, o^
8a	ma
8b	fa-
=6	=6
2dd	-rou-
2cc}	-che,}
=7	=7
{4cc	{J'ai-
8a	-me
8g	tes
2a	yeux,
=8	=8
4dd	j'ai-
8a	-me
8g	ta
4.a	bou-
8a}	-che}
=9	=9
{4ffn	{Ou\
8ee	mes
8dd	bai-
8cc	-sers
8b	s'e/-
8a	-pui-
8b	-se-
=10	=10
1g}	-ront.}
=11	=11
1r	.
=12	=12
2r	.
2r	.
=13	=13
1r	.
=14	=14
{2dd	{J'ai-
4.dd	-me
8dd	ta
=15	=15
4ee-	voix,
4ee-	j'ai-
8dd	-me
8cc	l'e/-
8b-	-tran-
8a-}	-ge}
=16	=16
{4g	{gra^-
8fn	-ce
8fn	de
8en	tout
8fn	ce
8g	que
8a-	tu
=17	=17
1g}	dis,}
=18	=18
{4b-	{O^
8a	ma
8g	re-
2dd	-bel-
=19	=19
4dd	-le, o^
8cc	mon
8b-	cher
4.a	an-
8g}	-ge,}
=20	=20
{8fn	{mon
8b-	en-
4dd	-fer
8ffn	et
8ee-	mon
8dd	pa-
8cc	-ra-
=21	=21
1dd}	-dis!}
=22	=22
{4dd	{J'ai-
8b	-me
8a	tes
2b	yeux,
=23	=23
4ee	j'ai-
8b	-me
8a	ton
2b}	front,}
=24	=24
{4ff#	{O^
8b	ma
8a	re-
8a	-bel-
8g#	-e, o^
8a	ma
8b	fa-
=25	=25
2dd	-rou-
2cc}	-che,}
=26	=26
{4cc	{J'ai-
8a	-me
8g	tes
2a	yeux,
=27	=27
4dd	j'ai-
8a	-me
8g	ta
4.a	bou-
8a}	-che}
=28	=28
{4ffn	{Ou\
8ee	mes
8dd	bai-
8cc	-sers
8b	s'e/-
8a	-pui-
8b	-se-
=29	=29
1g}	-ront.}
!!30-32 rest
=33	=33
{2b	{J'ai-
4b	-me
4b	tout
=34	=34
8ee	ce
8dd#	qui
8cc#	te
8b	fait
4.cc#	bel-
8cc#}	-le,}
=35	=35
{8b	{De
8b	tes
4ee	pieds
8ee	jus-
8dd#	-qu'a\
8cc#	tes
8b	che-
=36	=36
2.cc#}	-veux,}
{4cc#	{O^
=37	=37
4cc#	toi
8cc#	vers
8cc#	qui
4ff#	mon-
8ee#	-tent
8dd#	mes
=38	=38
2cc#}	voeux,}
{4ff#	{O^
8ee#	ma
8dd#	fa-
=39	=39
8cc#	-rou-
8cc#	-che, o^
8b	ma
8a#	re-
2dd#	-bel-
=40	=40
(1cc#}	-le}
=41	=41
{4dd)	{J'ai-
8b	-me
8a	tes
2b	yeux,
=42	=42
4ee	j'ai-
8b	-me
8a	ton
2b}	front,}
=43	=43
{4ff#	{O^
8b	ma
8a	re-
8a	-bel-
8g#	-e, o^
8a	ma
8b	fa-
=44	=44
2dd	-rou-
2cc}	-che,}
=45	=45
{4cc	{J'ai-
8a	-me
8g	tes
2a	yeux,
=46	=46
4dd	j'ai-
8a	-me
8g	ta
4.a	bou-
8a}	-che}
=47	=47
{4ffn	{Ou\
8ee	mes
8dd	bai-
8cc	-sers
8b	s'e/-
8a	-pui-
8b	-se-
=48	=48
1g}	-ront,}
=49	=49
{4ffn	{Ou\
8ee	mes
8dd	bai-
8cc	-sers
8bn	s'e-
8a	-pui-
8b	-se-
=50	=50
1g}	-ront.}
*-	*-
